src/assets/logos/YFI.svg

<svg width="24" height="24" viewBox="0 0 24 24" fill="none" xmlns="http://www.w3.org/2000/svg">
<path fill-rule="evenodd" clip-rule="evenodd" d="M12 0C18.6264 0 24 5.3736 24 12C24 18.6264 18.6264 24 12 24C5.3736 24 0 18.6264 0 12C0 5.3736 5.3736 0 12 0Z" fill="#006AE3"/>
<path d="M11.5059 17.0592V7.0752H12.5931V17.0592H11.5059Z" fill="white"/>
<path d="M17.0395 10.4016L13.6819 11.292L12.9331 7.80717L13.9315 7.58157L14.3251 9.23277C14.3251 9.23277 15.2323 7.74477 14.0227 6.20397C13.3099 5.41197 12.9715 5.37837 12.1723 5.25357C11.4691 5.15277 9.8347 5.39037 9.3475 7.29837C9.1411 8.52717 9.3739 9.43677 10.9579 10.6272L10.8691 11.952C10.8691 11.952 9.1003 10.7064 8.6443 9.83277C8.2915 9.14157 7.6867 7.77597 8.7787 5.87517C9.3667 4.92477 10.5259 4.01277 12.5683 4.10877C13.5955 4.15197 16.1035 5.40717 15.7147 8.33997C15.6475 8.88957 15.3619 9.62157 15.3619 9.62157L16.7395 9.31437L17.0395 10.4016Z" fill="white"/>
<path d="M15.1228 18.2135C14.5084 19.1471 13.3252 20.0279 11.2876 19.8791C10.2604 19.8095 7.78837 18.4871 8.25397 15.5663C8.33557 15.0191 8.64037 14.2967 8.64037 14.2967L7.25557 14.5655L6.98438 13.4735L10.366 12.6719L11.0236 16.1759L10.018 16.3751L9.66757 14.7119C9.66757 14.7119 8.72197 16.1735 9.88837 17.7479C10.5796 18.5591 10.9156 18.5999 11.7148 18.7463C12.4132 18.8663 14.0548 18.6695 14.5924 16.7759C14.83 15.5543 14.6212 14.6375 13.0708 13.4039L13.1956 12.0815C13.1956 12.0815 14.9308 13.3727 15.3628 14.2583C15.694 14.9615 16.2628 16.3439 15.1228 18.2135V18.2135Z" fill="white"/>
</svg>

<svg fill="none" height="24" width="24" xmlns="http://www.w3.org/2000/svg"><path clip-rule="evenodd" d="M12 0c6.626 0 12 5.374 12 12s-5.374 12-12 12S0 18.626 0 12 5.374 0 12 0z" fill="#006ae3" fill-rule="evenodd"/><g fill="#fff"><path d="M11.506 17.06V7.074h1.087v9.984z"/><path d="m17.04 10.402-3.358.89-.749-3.485.999-.225.393 1.65s.907-1.487-.302-3.028c-.713-.792-1.051-.826-1.85-.95-.704-.101-2.338.136-2.826 2.044-.206 1.23.027 2.139 1.61 3.33l-.088 1.324S9.1 10.706 8.644 9.832c-.353-.69-.957-2.056.135-3.957.588-.95 1.747-1.862 3.79-1.766 1.026.043 3.534 1.298 3.146 4.231-.068.55-.353 1.282-.353 1.282l1.377-.308zm-1.917 7.811c-.615.934-1.798 1.815-3.835 1.666-1.028-.07-3.5-1.392-3.034-4.313.082-.547.386-1.27.386-1.27l-1.384.27-.272-1.092 3.382-.802.658 3.504-1.006.2-.35-1.664s-.946 1.462.22 3.036c.692.811 1.028.852 1.827.998.698.12 2.34-.076 2.877-1.97.238-1.222.03-2.138-1.521-3.372l.125-1.322s1.735 1.29 2.167 2.176c.331.704.9 2.086-.24 3.956z"/></g></svg>
